svg/color/bera.svg

<svg width="64" height="64" viewBox="0 0 64 64" fill="none" xmlns="http://www.w3.org/2000/svg">
<circle cx="32" cy="32" r="32" fill="#814625"/>
<path d="M30.8066 30.3796C30.7714 30.2733 30.7468 30.1643 30.7278 30.0542C30.7191 30.0032 30.7089 29.9524 30.6974 29.902C30.6723 29.7925 30.6444 29.6836 30.6143 29.5753V29.575C31.1133 28.8474 33.4988 25.0525 30.7842 22.6167C27.7714 19.9133 24.2512 23.4567 24.2512 23.4567L24.2621 23.4724C22.6799 23.0093 20.9643 22.955 19.2952 23.4565C19.295 23.4565 19.2949 23.4565 19.2949 23.4565C19.2743 23.4358 15.7659 19.9212 12.762 22.6167C9.75706 25.313 13.0019 29.6752 13.0188 29.698C13.0188 29.698 13.0188 29.6981 13.0188 29.6983C12.9843 29.8008 12.9564 29.9054 12.938 30.0117C12.6129 31.8784 10.3999 32.4545 10.3999 35.7061C10.3999 38.9576 12.715 41.6321 17.4404 41.6321H19.3794C19.3794 41.6321 19.3796 41.6321 19.3797 41.6321C19.3884 41.644 20.1867 42.7339 21.826 42.7327C23.3478 42.7316 24.3528 41.6414 24.3615 41.6321C24.3615 41.6321 24.3615 41.6321 24.3618 41.6321H26.2117C30.9371 41.6321 33.2522 39.0204 33.2522 35.7061C33.2522 32.6781 31.3331 31.9702 30.8068 30.3796H30.8066Z" fill="white"/>
<path d="M53.3886 26.6644C53.3886 26.6644 53.74 23.5305 51.0687 22.8571V21.6002H48.9999V22.8257C46.182 23.4261 46.5451 26.6644 46.5451 26.6644V27.2017C46.5451 27.2017 46.1818 30.4407 49.0009 31.0405H49.0006V33.7308C46.0304 34.252 46.4057 37.5966 46.4057 37.5966V38.1339C46.4057 38.1339 46.0424 41.3722 48.8604 41.9725V43.1981H50.9292V41.9412C53.6007 41.2678 53.2491 38.1339 53.2491 38.1339C53.3659 38.1339 53.4606 38.0427 53.4606 37.9303V37.8003C53.4606 37.6878 53.3659 37.5966 53.2491 37.5966C53.2491 37.5966 53.5977 34.4899 50.9638 33.7984V31.0405H50.9327C53.7518 30.4407 53.3885 27.2017 53.3885 27.2017C53.5052 27.2017 53.5999 27.1105 53.5999 26.998V26.868C53.5999 26.7556 53.5052 26.6644 53.3885 26.6644H53.3886ZM51.7027 37.5966H51.5134C51.3967 37.5966 51.302 37.6878 51.302 37.8003V37.9303C51.302 38.0427 51.3967 38.1339 51.5134 38.1339H51.7027C51.7027 40.0779 51.0324 40.405 50.8069 40.4601C50.7698 40.4691 50.7338 40.4426 50.7338 40.4058V39.7862C50.7338 39.4436 50.5072 39.256 50.2806 39.1539C49.9941 39.0249 49.6605 39.0249 49.3741 39.1539C49.1475 39.256 48.9208 39.4436 48.9208 39.7862V40.4058C48.9208 40.4421 48.8855 40.4692 48.849 40.4603C48.6248 40.4062 47.952 40.0817 47.952 38.1339V37.5966C47.952 35.6526 48.6222 35.3255 48.8478 35.2705C48.8848 35.2615 48.9208 35.2879 48.9208 35.3247V35.9444C48.9208 36.2869 49.1475 36.4746 49.3741 36.5767C49.6605 36.7056 49.9941 36.7056 50.2806 36.5767C50.5072 36.4746 50.7338 36.2869 50.7338 35.9444V35.3247C50.7338 35.2885 50.7691 35.2613 50.8056 35.2702C51.0299 35.3243 51.7027 35.6489 51.7027 37.5966ZM51.6529 27.2017H51.8421C51.8421 29.1494 51.1694 29.4741 50.9451 29.5281C50.9086 29.537 50.8733 29.5098 50.8733 29.4736V28.8539C50.8733 28.5114 50.6467 28.3237 50.42 28.2216C50.1336 28.0927 49.8 28.0927 49.5135 28.2216C49.2869 28.3237 49.0603 28.5114 49.0603 28.8539V29.4736C49.0603 29.5104 49.0243 29.5368 48.9872 29.5278C48.7617 29.4728 48.0915 29.1457 48.0915 27.2017V26.6644C48.0915 24.7166 48.7642 24.3919 48.9885 24.3379C49.025 24.3291 49.0603 24.3564 49.0603 24.3925V25.0121C49.0603 25.3547 49.2869 25.5423 49.5135 25.6444C49.8 25.7734 50.1336 25.7734 50.42 25.6444C50.6467 25.5423 50.8733 25.3547 50.8733 25.0121V24.3925C50.8733 24.3557 50.9093 24.3292 50.9464 24.3382C51.1719 24.3933 51.8421 24.7204 51.8421 26.6644H51.6529C51.5361 26.6644 51.4414 26.7556 51.4414 26.868V26.998C51.4414 27.1105 51.5361 27.2017 51.6529 27.2017Z" fill="white"/>
<path d="M43.036 32.1987C43.036 32.1987 43.4013 28.9416 40.5566 28.355V25.4288C43.3256 24.8038 42.9663 21.6002 42.9663 21.6002C42.9663 21.6002 41.4134 21.6002 41.4198 21.6002C41.4198 23.548 40.7471 23.8726 40.5228 23.9266C40.4863 23.9355 40.451 23.9082 40.451 23.8721V23.2524C40.451 22.9099 40.2244 22.7223 39.9977 22.6202C39.7113 22.4912 39.3777 22.4912 39.0912 22.6202C38.8646 22.7223 38.638 22.9099 38.638 23.2524V23.8721C38.638 23.9089 38.602 23.9354 38.5649 23.9264C38.3394 23.8713 37.6692 23.5442 37.6692 21.6002C37.6757 21.6002 36.1227 21.6002 36.1227 21.6002C36.1227 21.6002 35.7499 24.9246 38.6908 25.4611V28.351C35.8255 28.927 36.1924 32.1985 36.1924 32.1985V32.7358C36.1924 32.7358 35.8255 36.0074 38.6908 36.5834V39.339C35.7499 39.8756 36.1227 43.1998 36.1227 43.1998C36.1227 43.1998 37.6756 43.1998 37.6692 43.1998C37.6692 41.2521 38.3419 40.9274 38.5662 40.8734C38.6027 40.8645 38.638 40.8917 38.638 40.9279V41.5476C38.638 41.8901 38.8646 42.0778 39.0912 42.1799C39.3777 42.3088 39.7113 42.3088 39.9977 42.1799C40.2244 42.0778 40.451 41.8901 40.451 41.5476V40.9279C40.451 40.8911 40.487 40.8647 40.5241 40.8737C40.7496 40.9287 41.4198 41.2558 41.4198 43.1998C41.4133 43.1998 42.9663 43.1998 42.9663 43.1998C42.9663 43.1998 43.3256 39.9962 40.5566 39.3712V36.5794C43.4013 35.9927 43.036 32.7357 43.036 32.7357C43.1528 32.7357 43.2475 32.6445 43.2475 32.5321V32.402C43.2475 32.2896 43.1528 32.1984 43.036 32.1984V32.1987ZM41.3003 32.736H41.4895C41.4895 34.6837 40.8168 35.0084 40.5925 35.0624C40.556 35.0713 40.5207 35.0441 40.5207 35.0079V34.3882C40.5207 34.0457 40.2941 33.858 40.0675 33.7559C39.781 33.627 39.4474 33.627 39.161 33.7559C38.9343 33.858 38.7077 34.0457 38.7077 34.3882V35.0079C38.7077 35.0447 38.6717 35.0711 38.6346 35.0621C38.4091 35.007 37.7389 34.68 37.7389 32.736V32.1987C37.7389 30.2509 38.4116 29.9262 38.6359 29.8722C38.6724 29.8634 38.7077 29.8906 38.7077 29.9268V30.5464C38.7077 30.889 38.9343 31.0766 39.161 31.1787C39.4474 31.3077 39.781 31.3077 40.0675 31.1787C40.2941 31.0766 40.5207 30.889 40.5207 30.5464V29.9268C40.5207 29.89 40.5567 29.8635 40.5938 29.8725C40.8193 29.9276 41.4895 30.2547 41.4895 32.1987H41.3003C41.1836 32.1987 41.0889 32.2899 41.0889 32.4023V32.5323C41.0889 32.6448 41.1836 32.736 41.3003 32.736Z" fill="white"/>
</svg>

<svg xmlns="http://www.w3.org/2000/svg" width="64" height="64" fill="none" viewBox="0 0 64 64"><circle cx="32" cy="32" r="32" fill="#814625"/><path fill="#fff" d="M30.807 30.38a2 2 0 0 1-.08-.326 3 3 0 0 0-.03-.152 7 7 0 0 0-.083-.327c.5-.728 2.885-4.523.17-6.958-3.013-2.704-6.533.84-6.533.84l.011.015c-1.582-.463-3.298-.517-4.967-.016-.02-.02-3.53-3.535-6.533-.84-3.005 2.697.24 7.06.257 7.082a2 2 0 0 0-.081.314c-.325 1.866-2.538 2.443-2.538 5.694s2.315 5.926 7.04 5.926h1.94c.008.012.807 1.102 2.446 1.1 1.522 0 2.527-1.09 2.535-1.1h1.85c4.726 0 7.041-2.612 7.041-5.926 0-3.028-1.919-3.736-2.445-5.326m22.582-3.716s.351-3.134-2.32-3.807V21.6h-2.07v1.226c-2.817.6-2.454 3.838-2.454 3.838v.538s-.363 3.239 2.456 3.839v2.69c-2.97.521-2.595 3.866-2.595 3.866v.537s-.364 3.238 2.454 3.838v1.226h2.07v-1.257c2.67-.673 2.32-3.807 2.32-3.807a.21.21 0 0 0 .21-.204v-.13a.21.21 0 0 0-.21-.203s.348-3.107-2.286-3.799V31.04h-.031c2.819-.6 2.456-3.838 2.456-3.838a.21.21 0 0 0 .21-.204v-.13a.21.21 0 0 0-.21-.204m-1.686 10.933h-.19a.21.21 0 0 0-.211.203v.13c0 .113.095.204.211.204h.19c0 1.944-.67 2.271-.896 2.326a.057.057 0 0 1-.073-.054v-.62c0-.342-.227-.53-.453-.632a1.1 1.1 0 0 0-.907 0c-.227.102-.453.29-.453.632v.62a.058.058 0 0 1-.072.054c-.224-.054-.897-.378-.897-2.326v-.537c0-1.944.67-2.272.896-2.327a.058.058 0 0 1 .073.055v.62c0 .342.227.53.453.632.286.129.62.129.907 0 .226-.102.453-.29.453-.633v-.62c0-.035.035-.063.072-.054.224.054.897.379.897 2.327m-.05-10.395h.19c0 1.947-.674 2.272-.898 2.326a.058.058 0 0 1-.072-.054v-.62c0-.343-.226-.53-.453-.632a1.1 1.1 0 0 0-.907 0c-.226.102-.453.29-.453.632v.62c0 .036-.036.063-.073.054-.225-.055-.895-.382-.895-2.326v-.538c0-1.947.672-2.272.897-2.326a.058.058 0 0 1 .071.054v.62c0 .343.227.53.453.632.287.13.62.13.907 0 .227-.102.453-.29.453-.632v-.62c0-.036.036-.063.073-.054.226.055.896.382.896 2.326h-.19a.21.21 0 0 0-.21.204v.13c0 .112.094.204.21.204m-8.616 4.997s.365-3.257-2.48-3.844v-2.926c2.77-.625 2.41-3.829 2.41-3.829H41.42c0 1.948-.673 2.273-.897 2.327a.058.058 0 0 1-.072-.055v-.62c0-.342-.227-.53-.453-.632a1.1 1.1 0 0 0-.907 0c-.226.102-.453.29-.453.632v.62c0 .037-.036.063-.073.054-.226-.055-.896-.382-.896-2.326h-1.546s-.373 3.325 2.568 3.861v2.89c-2.866.576-2.499 3.848-2.499 3.848v.537s-.367 3.271 2.499 3.847v2.756c-2.941.537-2.568 3.86-2.568 3.86h1.546c0-1.947.673-2.272.897-2.326a.058.058 0 0 1 .072.055v.62c0 .342.227.53.453.632.287.129.62.129.907 0 .226-.102.453-.29.453-.632v-.62c0-.037.036-.063.073-.054.226.055.896.382.896 2.326h1.546s.36-3.204-2.41-3.829V36.58c2.845-.586 2.48-3.843 2.48-3.843a.21.21 0 0 0 .212-.204v-.13a.21.21 0 0 0-.212-.204m-1.736.537h.19c0 1.948-.673 2.272-.898 2.326a.058.058 0 0 1-.071-.054v-.62c0-.342-.227-.53-.453-.632a1.1 1.1 0 0 0-.907 0c-.227.102-.453.29-.453.632v.62c0 .037-.036.063-.073.054-.226-.055-.896-.382-.896-2.326v-.537c0-1.948.673-2.273.897-2.327a.058.058 0 0 1 .072.055v.62c0 .342.226.53.453.632.286.129.62.129.907 0 .226-.102.453-.29.453-.633v-.62c0-.036.036-.062.073-.053.225.055.895.382.895 2.326H41.3a.21.21 0 0 0-.211.203v.13c0 .113.095.204.211.204"/></svg>
